X: 1
T: The Band Played On
C: C.B.Ward
R: waltz
Z: 2006 John Chambers <jc:trillian.mit.edu>
M: 3/4
L: 1/4
K: G
[| "G"GBG |    FBF |     EG>E |  D2E/G/ | "D7"F3 | c3 | c3- | czE   |
| "D7"FAF |    EDE |      FAF |    EDE  |  "G"D3 | B3  | B3-  | BzD/D/ |
|  "G"GGG | "D"FFF | "G7"=FFF | "C"EE>E |    EEE | EAB | "Am"c3- | czE |
|  "C"E^DE | "A7/C#"GF>E | "G"DEF | "Em"G2A/B/ | "A7"E3 | "D7"F3 | "G"G3- | G2z |]
